svgs/light/computer.svg

<svg xmlns="http://www.w3.org/2000/svg" viewBox="0 0 640 512"><!--! Font Awesome Pro 6.6.0 by @fontawesome - https://fontawesome.com License - https://fontawesome.com/license (Commercial License) Copyright 2024 Fonticons, Inc. --><path d="M384 64c17.7 0 32 14.3 32 32l0 224c0 17.7-14.3 32-32 32l-108.5 0L264 352l-80 0-11.5 0L64 352c-17.7 0-32-14.3-32-32L32 96c0-17.7 14.3-32 32-32l320 0zM64 384l97.8 0-21.3 64L80 448c-8.8 0-16 7.2-16 16s7.2 16 16 16l49.8 0 22.2 0 144 0 22.2 0 49.8 0c8.8 0 16-7.2 16-16s-7.2-16-16-16l-60.5 0-21.3-64 97.8 0c35.3 0 64-28.7 64-64l0-224c0-35.3-28.7-64-64-64L64 32C28.7 32 0 60.7 0 96L0 320c0 35.3 28.7 64 64 64zm110.2 64l21.3-64 56.9 0 21.3 64-99.6 0zM528 64l64 0c8.8 0 16 7.2 16 16l0 48-96 0 0-48c0-8.8 7.2-16 16-16zm-16 96l96 0 0 32-96 0 0-32zm0 272l0-208 96 0 0 208c0 8.8-7.2 16-16 16l-64 0c-8.8 0-16-7.2-16-16zM480 80l0 352c0 26.5 21.5 48 48 48l64 0c26.5 0 48-21.5 48-48l0-352c0-26.5-21.5-48-48-48l-64 0c-26.5 0-48 21.5-48 48zm80 280a24 24 0 1 0 0-48 24 24 0 1 0 0 48z"/></svg>

<svg xmlns="http://www.w3.org/2000/svg" viewBox="0 0 640 512"><!--! Font Awesome Pro 6.4.2 by @fontawesome - https://fontawesome.com License - https://fontawesome.com/license (Commercial License) Copyright 2023 Fonticons, Inc. --><path d="M384 64c17.7 0 32 14.3 32 32V320c0 17.7-14.3 32-32 32H275.5 264 184 172.5 64c-17.7 0-32-14.3-32-32V96c0-17.7 14.3-32 32-32H384zM64 384h97.8l-21.3 64H80c-8.8 0-16 7.2-16 16s7.2 16 16 16h49.8H152 296h22.2H368c8.8 0 16-7.2 16-16s-7.2-16-16-16H307.5l-21.3-64H384c35.3 0 64-28.7 64-64V96c0-35.3-28.7-64-64-64H64C28.7 32 0 60.7 0 96V320c0 35.3 28.7 64 64 64zm110.2 64l21.3-64h56.9l21.3 64H174.2zM528 64h64c8.8 0 16 7.2 16 16v48H512V80c0-8.8 7.2-16 16-16zm-16 96h96v32H512V160zm0 272V224h96V432c0 8.8-7.2 16-16 16H528c-8.8 0-16-7.2-16-16zM480 80V432c0 26.5 21.5 48 48 48h64c26.5 0 48-21.5 48-48V80c0-26.5-21.5-48-48-48H528c-26.5 0-48 21.5-48 48zm80 280a24 24 0 1 0 0-48 24 24 0 1 0 0 48z"/></svg>
